inst/pkgdown/assets/assets/images/carpentries-logo.svg

<svg width="238" height="50" viewBox="0 0 238 50" fill="none" xmlns="http://www.w3.org/2000/svg">
<path fill-rule="evenodd" clip-rule="evenodd" d="M23.0598 27.3609L22.6843 17.7282L30.9969 12.4906L39.3907 16.9889L39.8174 26.8813L31.5048 32.1186L23.0598 27.3609Z" fill="#071159"/>
<path fill-rule="evenodd" clip-rule="evenodd" d="M6.56771 25.4942L6.51697 11.651L24.5781 0.378784L33.2163 5.53549C26.9868 9.58328 24.124 11.2891 17.8086 15.2158L17.6898 18.9002L6.56771 25.4942Z" fill="#071159"/>
<path fill-rule="evenodd" clip-rule="evenodd" d="M7.42605 44.7913L0 33.0253L17.7501 22.6386L18.4628 30.2443L25.1178 33.6906L7.42605 44.7913Z" fill="#071159"/>
<path fill-rule="evenodd" clip-rule="evenodd" d="M16.7205 42.8533L29.0029 49.2384L47.3962 37.9859L46.2286 28.3408C39.8543 32.1537 37.3816 33.7582 31.0058 37.5694L27.6764 35.9869L16.7205 42.8533Z" fill="#071159"/>
<path fill-rule="evenodd" clip-rule="evenodd" d="M70.7365 20.4865H73.5529V8.0898H78.2899V5.52942C73.9584 5.52942 70.3099 5.52942 65.9999 5.52942V8.0898H70.7365V20.4865ZM95.4513 20.4865V5.57228H92.6562V11.8666H85.3163V5.57228H82.4999V20.4865H85.3163V14.4696H92.6562V20.4865H95.4513ZM111.717 17.7127H103.332V14.3416H111.418V11.7172H103.332V8.26066H111.717V5.52942H100.536C100.536 10.5151 100.536 15.5152 100.536 20.4865H111.717V17.7127Z" fill="#383838"/>
<path fill-rule="evenodd" clip-rule="evenodd" d="M77.6713 39.8844C76.6899 40.8657 75.2175 41.3992 73.9161 41.3992C70.2248 41.3992 68.7954 38.8174 68.7739 36.3425C68.7525 33.8461 70.3102 31.1577 73.9161 31.1577C75.2175 31.1577 76.5405 31.6058 77.5221 32.5659L79.3995 30.7522C77.8633 29.2374 75.943 28.4693 73.9161 28.4693C68.5179 28.4693 65.9789 32.4379 66.0001 36.3425C66.0215 40.2256 68.3684 44.045 73.9161 44.045C76.071 44.045 78.0553 43.3409 79.5916 41.8258L77.6713 39.8844Z" fill="#383838"/>
<path fill-rule="evenodd" clip-rule="evenodd" d="M94.8543 43.7036H97.9268L91.2269 28.7465H88.1545L81.4549 43.7036H84.506L85.7861 40.8871H93.5953L94.8543 43.7036ZM92.4645 38.2627H86.9169L89.6907 31.8903L92.4645 38.2627Z" fill="#383838"/>
<path fill-rule="evenodd" clip-rule="evenodd" d="M114.918 43.5115L110.394 38.4122C113.232 37.8361 114.171 35.7663 114.171 33.7075C114.171 31.1148 112.315 28.7679 108.794 28.7465C106.426 28.7679 104.057 28.7465 101.689 28.7465V43.7036H104.505V38.7108H107.215L111.568 43.7036H114.918V43.5115ZM108.794 31.3709C110.565 31.3709 111.355 32.5694 111.355 33.7715C111.355 34.9733 110.586 36.1718 108.794 36.1718H104.505V31.3709H108.794Z" fill="#383838"/>
<path fill-rule="evenodd" clip-rule="evenodd" d="M121.368 31.4349H125.593C129.177 31.4349 129.199 36.7266 125.593 36.7266H121.368V31.4349ZM125.593 28.7465C123.246 28.7253 120.899 28.7465 118.552 28.7465V43.7036H121.368V39.3083H125.593C132.911 39.3083 132.89 28.7465 125.593 28.7465Z" fill="#383838"/>
<path fill-rule="evenodd" clip-rule="evenodd" d="M146.595 40.9297H138.21V37.5587H146.296V34.9343H138.21V31.4777H146.595V28.7465H135.414C135.414 33.7322 135.414 38.7322 135.414 43.7036H146.595V40.9297Z" fill="#383838"/>
<path fill-rule="evenodd" clip-rule="evenodd" d="M161.516 38.0208L154.198 28.7465H151.914V43.7036H154.731V33.6185L162.583 43.7036H164.333V28.7465H161.516V38.0208Z" fill="#383838"/>
<path fill-rule="evenodd" clip-rule="evenodd" d="M173.258 43.7036H176.075V31.3069H180.812V28.7465C176.48 28.7465 172.832 28.7465 168.521 28.7465V31.3069H173.258V43.7036Z" fill="#383838"/>
<path fill-rule="evenodd" clip-rule="evenodd" d="M198.25 43.5115L193.727 38.4122C196.565 37.8361 197.504 35.7663 197.504 33.7075C197.504 31.1148 195.647 28.7679 192.127 28.7465C189.758 28.7679 187.39 28.7465 185.021 28.7465V43.7036H187.838V38.7108H190.548L194.9 43.7036H198.25V43.5115ZM192.127 31.3709C193.898 31.3709 194.687 32.5694 194.687 33.7715C194.687 34.9733 193.919 36.1718 192.127 36.1718H187.838V31.3709H192.127Z" fill="#383838"/>
<path fill-rule="evenodd" clip-rule="evenodd" d="M204.701 43.7036V28.7465H201.906V43.7036H204.701Z" fill="#383838"/>
<path fill-rule="evenodd" clip-rule="evenodd" d="M220.966 40.9297H212.581V37.5587H220.668V34.9343H212.581V31.4777H220.966V28.7465H209.786C209.786 33.7322 209.786 38.7322 209.786 43.7036H220.966V40.9297Z" fill="#383838"/>
<path fill-rule="evenodd" clip-rule="evenodd" d="M237.53 31.2217C236.4 28.9174 233.989 28.2558 231.663 28.2558C228.91 28.2773 225.881 29.536 225.881 32.6084C225.881 35.9584 228.697 36.7691 231.748 37.1319C233.732 37.3452 235.205 37.9213 235.205 39.3294C235.205 40.9511 233.54 41.5698 231.77 41.5698C229.956 41.5698 228.228 40.8445 227.566 39.2014L225.219 40.4177C226.329 43.1488 228.676 44.0876 231.727 44.0876C235.055 44.0876 238 42.6579 238 39.3294C238 35.7663 235.098 34.9557 231.983 34.5716C230.191 34.3582 228.654 33.9955 228.654 32.6939C228.654 31.5843 229.657 30.7096 231.748 30.7096C233.37 30.7096 234.778 31.5203 235.29 32.3739L237.53 31.2217Z" fill="#383838"/>
<path fill-rule="evenodd" clip-rule="evenodd" d="M55.6162 0.378662V49.2385H57.2083V0.378662H55.6162Z" fill="#383838"/>
</svg>

<?xml version="1.0" encoding="utf-8"?>
<!-- Generator: Adobe Illustrator 26.0.1, SVG Export Plug-In . SVG Version: 6.00 Build 0)  -->
<svg version="1.1" id="Laag_1" xmlns="http://www.w3.org/2000/svg" xmlns:xlink="http://www.w3.org/1999/xlink" x="0px" y="0px"
	 width="238px" height="50px" viewBox="0 0 238 50" style="enable-background:new 0 0 238 50;" xml:space="preserve">
<style type="text/css">
	.st0{fill-rule:evenodd;clip-rule:evenodd;fill:#58FF00;}
</style>
<path class="st0" d="M23.1,27.4l-0.4-9.6l8.3-5.2l8.4,4.5l0.4,9.9l-8.3,5.2L23.1,27.4z"/>
<path class="st0" d="M6.6,25.5L6.5,11.7L24.6,0.4l8.6,5.2c-6.2,4-9.1,5.8-15.4,9.7L17.7,19L6.6,25.5z"/>
<path class="st0" d="M7.4,44.8L0,33l17.8-10.4l0.7,7.6l6.7,3.4L7.4,44.8z"/>
<path class="st0" d="M16.7,42.9L29,49.2L47.4,38l-1.2-9.6c-6.4,3.8-8.8,5.4-15.2,9.2L27.7,36L16.7,42.9z"/>
<path class="st0" d="M70.7,20.5h2.8V8.1h4.7V5.5c-4.3,0-8,0-12.3,0v2.6h4.7v12.4H70.7z M95.5,20.5V5.6h-2.8v6.3h-7.3V5.6h-2.8v14.9
	h2.8v-6h7.3v6H95.5z M111.7,17.7h-8.4v-3.4h8.1v-2.6h-8.1V8.3h8.4V5.5h-11.2c0,5,0,10,0,15h11.2V17.7z"/>
<path class="st0" d="M77.7,39.9c-1,1-2.5,1.5-3.8,1.5c-3.7,0-5.1-2.6-5.1-5.1s1.5-5.2,5.1-5.2c1.3,0,2.6,0.4,3.6,1.4l1.9-1.8
	c-1.5-1.5-3.5-2.3-5.5-2.3c-5.4,0-7.9,4-7.9,7.9s2.4,7.7,7.9,7.7c2.2,0,4.1-0.7,5.7-2.2L77.7,39.9z"/>
<path class="st0" d="M94.9,43.7H98l-6.7-15h-3.1l-6.7,15h3.1l1.3-2.8h7.8L94.9,43.7z M92.5,38.3H87l2.8-6.4L92.5,38.3z"/>
<path class="st0" d="M114.9,43.5l-4.5-5.1c2.8-0.6,3.8-2.6,3.8-4.7c0-2.6-1.9-4.9-5.4-5c-2.4,0-4.7,0-7.1,0v15h2.8v-5h2.7l4.4,5h3.3
	C114.9,43.7,114.9,43.5,114.9,43.5z M108.8,31.4c1.8,0,2.6,1.2,2.6,2.4s-0.8,2.4-2.6,2.4h-4.3v-4.8
	C104.5,31.4,108.8,31.4,108.8,31.4z"/>
<path class="st0" d="M121.4,31.4h4.2c3.6,0,3.6,5.3,0,5.3h-4.2V31.4z M125.6,28.7c-2.3,0-4.7,0-7,0v15h2.8v-4.4h4.2
	C132.9,39.3,132.9,28.7,125.6,28.7z"/>
<path class="st0" d="M146.6,40.9h-8.4v-3.4h8.1v-2.6h-8.1v-3.5h8.4v-2.7h-11.2c0,5,0,10,0,15h11.2V40.9z"/>
<path class="st0" d="M161.5,38l-7.3-9.3h-2.3v15h2.8V33.6l7.9,10.1h1.8v-15h-2.8L161.5,38L161.5,38z"/>
<path class="st0" d="M173.3,43.7h2.8V31.3h4.7v-2.6c-4.3,0-8,0-12.3,0v2.6h4.7v12.4H173.3z"/>
<path class="st0" d="M198.2,43.5l-4.5-5.1c2.8-0.6,3.8-2.6,3.8-4.7c0-2.6-1.9-4.9-5.4-5c-2.4,0-4.7,0-7.1,0v15h2.8v-5h2.7l4.4,5h3.4
	L198.2,43.5L198.2,43.5z M192.1,31.4c1.8,0,2.6,1.2,2.6,2.4s-0.8,2.4-2.6,2.4h-4.3v-4.8C187.8,31.4,192.1,31.4,192.1,31.4z"/>
<path class="st0" d="M204.7,43.7v-15h-2.8v15H204.7z"/>
<path class="st0" d="M221,40.9h-8.4v-3.4h8.1v-2.6h-8.1v-3.5h8.4v-2.7h-11.2c0,5,0,10,0,15H221V40.9z"/>
<path class="st0" d="M237.5,31.2c-1.1-2.3-3.5-3-5.9-3c-2.8,0-5.8,1.3-5.8,4.4c0,3.4,2.8,4.2,5.9,4.5c2,0.2,3.5,0.8,3.5,2.2
	c0,1.6-1.7,2.2-3.4,2.2c-1.8,0-3.5-0.7-4.2-2.4l-2.3,1.2c1.1,2.7,3.5,3.7,6.5,3.7c3.3,0,6.3-1.4,6.3-4.8c0-3.6-2.9-4.4-6-4.8
	c-1.8-0.2-3.3-0.6-3.3-1.9c0-1.1,1-2,3.1-2c1.6,0,3,0.8,3.5,1.7L237.5,31.2z"/>
<path class="st0" d="M55.6,0.4v48.9h1.6V0.4H55.6z"/>
</svg>
